text-box-edit-outline.svg

<svg fill="currentColor" viewBox="0 0 24 24"><path d="M10 21H5c-1.11 0-2-.89-2-2V5c0-1.11.89-2 2-2h14c1.11 0 2 .89 2 2v5.33c-.3-.12-.63-.19-.96-.19-.37 0-.72.08-1.04.23V5H5v14h5.11l-.11.11zM7 9h10V7H7zm0 8h5.11L14 15.12V15H7zm0-4h9.12l.88-.88V11H7zm14.7.58-1.28-1.28a.55.55 0 0 0-.77 0l-1 1 2.05 2.05 1-1a.55.55 0 0 0 0-.77M12 22h2.06l6.05-6.07-2.05-2.05L12 19.94z"/></svg>

<svg  viewBox="0 0 24 24" fill="currentColor"><path  d="M10 21H5C3.89 21 3 20.11 3 19V5C3 3.89 3.89 3 5 3H19C20.11 3 21 3.89 21 5V10.33C20.7 10.21 20.37 10.14 20.04 10.14C19.67 10.14 19.32 10.22 19 10.37V5H5V19H10.11L10 19.11V21M7 9H17V7H7V9M7 17H12.11L14 15.12V15H7V17M7 13H16.12L17 12.12V11H7V13M21.7 13.58L20.42 12.3C20.21 12.09 19.86 12.09 19.65 12.3L18.65 13.3L20.7 15.35L21.7 14.35C21.91 14.14 21.91 13.79 21.7 13.58M12 22H14.06L20.11 15.93L18.06 13.88L12 19.94V22Z"/></svg>
